symbolic/64x64/apps/crayon-physics-deluxe.svg

<svg width="64" height="64" version="1.1" xmlns="http://www.w3.org/2000/svg">
 <path d="m31.748047 5.0058595a9.0009 9.0009 0 0 0-8.042969 5.5019535l-2.3125 5.492187h-8.392578a9.0009 9.0009 0 0 0-6.1894531 15.533203l5.7480471 5.447266-4.8535159 11.527343a9.0009 9.0009 0 0 0 12.707031 11.335938l11.587891-6.517578 11.587891 6.517578a9.0009 9.0009 0 0 0 12.707031-11.335938l-4.853516-11.527343 5.748047-5.447266a9.0009 9.0009 0 0 0-6.189453-15.533203h-8.392578l-2.3125-5.492187a9.0009 9.0009 0 0 0-8.546875-5.5019535z" style="opacity:.2"/>
 <path d="m31.748047 4.0058594a9.0009 9.0009 0 0 0-8.042969 5.5019531l-2.3125 5.4921875h-8.392578a9.0009 9.0009 0 0 0-6.1894531 15.533203l5.7480471 5.447266-4.8535159 11.527343a9.0009 9.0009 0 0 0 12.707031 11.335938l11.587891-6.517578 11.587891 6.517578a9.0009 9.0009 0 0 0 12.707031-11.335938l-4.853516-11.527343 5.748047-5.447266a9.0009 9.0009 0 0 0-6.189453-15.533203h-8.392578l-2.3125-5.4921875a9.0009 9.0009 0 0 0-8.546875-5.5019531z" style="fill:#353535"/>
 <path d="M 32,14 27.369141,25 H 13 L 23.271484,34.730469 16,52 32,43 48,52 40.728516,34.730469 51,25 H 36.630859 Z" style="opacity:.2"/>
 <path d="M 32 13 L 27.369141 24 L 13 24 L 23.271484 33.730469 L 16 51 L 32 42 L 48 51 L 40.728516 33.730469 L 51 24 L 36.630859 24 L 32 13 z " style="fill:#e1dc1f"/>
 <path d="m31.748047 4.0058594a9.0009 9.0009 0 0 0-8.042969 5.5019531l-2.3125 5.4921875h-8.392578a9.0009 9.0009 0 0 0-8.9785156 9.462891 9.0009 9.0009 0 0 1 8.9785156-8.462891h8.392578l2.3125-5.492188a9.0009 9.0009 0 0 1 8.042969-5.5019526 9.0009 9.0009 0 0 1 8.546875 5.5019526l2.3125 5.492188h8.392578a9.0009 9.0009 0 0 1 8.974609 8.492188 9.0009 9.0009 0 0 0-8.974609-9.492188h-8.392578l-2.3125-5.4921875a9.0009 9.0009 0 0 0-8.546875-5.5019531zm-19.490235 32.689453-4.5527339 10.8125a9.0009 9.0009 0 0 0-0.6777343 3.984376 9.0009 9.0009 0 0 1 0.6777343-2.984376l4.8535159-11.527343-0.300782-0.285157zm39.484376 0-0.300782 0.285157 4.853516 11.527343a9.0009 9.0009 0 0 1 0.68164 3.009766 9.0009 9.0009 0 0 0-0.68164-4.009766l-4.552734-10.8125z" style="fill:#ffffff;opacity:.1"/>
 <path d="m32 13-4.630859 11h-14.369141l1.054688 1h13.314453l4.630859-11 4.630859 11h13.314453l1.054688-1h-14.369141l-4.630859-11zm-9.029297 21.445312-6.970703 16.554688 0.550781-0.310547 6.720703-15.958984-0.300781-0.285157zm18.058594 0-0.300781 0.285157 6.720703 15.958984 0.550781 0.310547-6.970703-16.554688z" style="fill:#ffffff;opacity:.2"/>
</svg>

<svg width="64" height="64" xmlns="http://www.w3.org/2000/svg"><path d="M31.748 5.006a9 9 0 0 0-8.043 5.502L21.393 16H13a9 9 0 0 0-6.19 15.533l5.749 5.447-4.854 11.528a9 9 0 0 0 12.707 11.336L32 53.326l11.588 6.518a9 9 0 0 0 12.707-11.336L51.44 36.98l5.748-5.447A9 9 0 0 0 51 16h-8.393l-2.312-5.492a9 9 0 0 0-8.547-5.502z" style="opacity:.2"/><path d="M31.748 4.006a9 9 0 0 0-8.043 5.502L21.393 15H13a9 9 0 0 0-6.19 15.533l5.749 5.447-4.854 11.528a9 9 0 0 0 12.707 11.336L32 52.326l11.588 6.518a9 9 0 0 0 12.707-11.336L51.44 35.98l5.748-5.447A9 9 0 0 0 51 15h-8.393l-2.312-5.492a9 9 0 0 0-8.547-5.502z" style="fill:#353535"/><path d="m32 14-4.63 11H13l10.271 9.73L16 52l16-9 16 9-7.271-17.27L51 25H36.63z" style="opacity:.2"/><path d="m32 13-4.63 11H13l10.271 9.73L16 51l16-9 16 9-7.271-17.27L51 24H36.63L32 13z" style="fill:#e1dc1f"/><path d="M31.748 4.006a9 9 0 0 0-8.043 5.502L21.393 15H13a9 9 0 0 0-8.979 9.463A9 9 0 0 1 13 16h8.393l2.312-5.492a9 9 0 0 1 8.043-5.502 9 9 0 0 1 8.547 5.502L42.607 16H51a9 9 0 0 1 8.975 8.492A9 9 0 0 0 51 15h-8.393l-2.312-5.492a9 9 0 0 0-8.547-5.502zm-19.49 32.69L7.705 47.507a9 9 0 0 0-.678 3.984 9 9 0 0 1 .678-2.984L12.56 36.98l-.301-.285zm39.484 0-.3.284 4.853 11.528a9 9 0 0 1 .682 3.01 9 9 0 0 0-.682-4.01l-4.553-10.813z" style="fill:#fff;opacity:.1"/><path d="m32 13-4.63 11H13l1.055 1h13.314L32 14l4.63 11h13.315L51 24H36.63L32 13zm-9.03 21.445L16 51l.55-.31 6.721-15.96-.3-.285zm18.06 0-.301.285 6.72 15.96L48 51l-6.97-16.555z" style="fill:#fff;opacity:.2"/></svg>
